Newaita-dark/mimetypes/64/application-x-zerosize.svg

<?xml version="1.0" encoding="UTF-8"?>
<svg xmlns="http://www.w3.org/2000/svg" xmlns:xlink="http://www.w3.org/1999/xlink" width="64pt" height="64pt" viewBox="0 0 64 64" version="1.1">
<defs>
<linearGradient id="linear0" gradientUnits="userSpaceOnUse" x1="254" y1="233.5" x2="254" y2="254.666672" gradientTransform="matrix(0.125012,0,0,0.125012,1.32304,26.87757)">
<stop offset="0" style="stop-color:rgb(0%,0%,0%);stop-opacity:0.27451;"/>
<stop offset="1" style="stop-color:rgb(0%,0%,0%);stop-opacity:0;"/>
</linearGradient>
<radialGradient id="radial0" gradientUnits="userSpaceOnUse" cx="450.908936" cy="189.579361" fx="450.908936" fy="189.579361" r="21.166656" gradientTransform="matrix(0.000000348341,-0.156265,-0.281277,-0.000000203077,98.969138,127.190665)">
<stop offset="0" style="stop-color:rgb(0%,0%,0%);stop-opacity:0.313725;"/>
<stop offset="0.222222" style="stop-color:rgb(0%,0%,0%);stop-opacity:0.27451;"/>
<stop offset="1" style="stop-color:rgb(0%,0%,0%);stop-opacity:0;"/>
</radialGradient>
<radialGradient id="radial1" gradientUnits="userSpaceOnUse" cx="450.908936" cy="189.579361" fx="450.908936" fy="189.579361" r="21.166656" gradientTransform="matrix(-0.000000348341,0.156265,0.281277,0.000000203077,-36.786098,-15.054958)">
<stop offset="0" style="stop-color:rgb(0%,0%,0%);stop-opacity:0.313725;"/>
<stop offset="0.222222" style="stop-color:rgb(0%,0%,0%);stop-opacity:0.27451;"/>
<stop offset="1" style="stop-color:rgb(0%,0%,0%);stop-opacity:0;"/>
</radialGradient>
<radialGradient id="radial2" gradientUnits="userSpaceOnUse" cx="450.908936" cy="189.579361" fx="450.908936" fy="189.579361" r="21.166656" gradientTransform="matrix(-0.000000348341,-0.156265,0.281277,-0.000000203077,-36.786098,127.190665)">
<stop offset="0" style="stop-color:rgb(0%,0%,0%);stop-opacity:0.313725;"/>
<stop offset="0.222222" style="stop-color:rgb(0%,0%,0%);stop-opacity:0.27451;"/>
<stop offset="1" style="stop-color:rgb(0%,0%,0%);stop-opacity:0;"/>
</radialGradient>
<radialGradient id="radial3" gradientUnits="userSpaceOnUse" cx="450.908936" cy="189.579361" fx="450.908936" fy="189.579361" r="21.166656" gradientTransform="matrix(0.000000348341,0.156265,-0.281277,0.000000203077,98.969135,-15.054959)">
<stop offset="0" style="stop-color:rgb(0%,0%,0%);stop-opacity:0.313725;"/>
<stop offset="0.222222" style="stop-color:rgb(0%,0%,0%);stop-opacity:0.27451;"/>
<stop offset="1" style="stop-color:rgb(0%,0%,0%);stop-opacity:0;"/>
</radialGradient>
<linearGradient id="linear1" gradientUnits="userSpaceOnUse" x1="940" y1="1695.118164" x2="940" y2="175.118118" gradientTransform="matrix(0.0330761,0,0,0.0330761,0,0)">
<stop offset="0" style="stop-color:rgb(87.843137%,87.843137%,87.843137%);stop-opacity:1;"/>
<stop offset="1" style="stop-color:rgb(93.333333%,93.333333%,93.333333%);stop-opacity:1;"/>
</linearGradient>
<linearGradient id="linear2" gradientUnits="userSpaceOnUse" x1="249.189392" y1="236.523804" x2="249.189423" y2="254.666687" gradientTransform="matrix(0.0597883,0,0,0.218771,30.084847,-32.721821)">
<stop offset="0" style="stop-color:rgb(0%,0%,0%);stop-opacity:0.27451;"/>
<stop offset="1" style="stop-color:rgb(0%,0%,0%);stop-opacity:0;"/>
</linearGradient>
<linearGradient id="linear3" gradientUnits="userSpaceOnUse" x1="338.666656" y1="233.5" x2="338.666656" y2="-168.666672" gradientTransform="matrix(0.125012,0,0,0.125012,0,26.877566)">
<stop offset="0" style="stop-color:rgb(61.960784%,61.960784%,61.960784%);stop-opacity:1;"/>
<stop offset="1" style="stop-color:rgb(74.117647%,74.117647%,74.117647%);stop-opacity:1;"/>
</linearGradient>
</defs>
<g id="surface1">
<path style=" stroke:none;fill-rule:nonzero;fill:url(#linear0);" d="M 15.875 56.066406 L 46.304688 56.066406 L 46.304688 58.714844 L 15.875 58.714844 Z M 15.875 56.066406 "/>
<path style=" stroke:none;fill-rule:nonzero;fill:url(#radial0);" d="M 46.304688 56.066406 L 51.597656 56.066406 L 51.597656 53.421875 L 46.304688 53.421875 Z M 46.304688 56.066406 "/>
<path style=" stroke:none;fill-rule:nonzero;fill:url(#radial1);" d="M 15.875 56.066406 L 10.585938 56.066406 L 10.585938 58.714844 L 15.875 58.714844 Z M 15.875 56.066406 "/>
<path style=" stroke:none;fill-rule:nonzero;fill:url(#radial2);" d="M 15.875 56.066406 L 10.585938 56.066406 L 10.585938 53.421875 L 15.875 53.421875 Z M 15.875 56.066406 "/>
<path style=" stroke:none;fill-rule:nonzero;fill:url(#radial3);" d="M 46.304688 56.066406 L 51.597656 56.066406 L 51.597656 58.714844 L 46.304688 58.714844 Z M 46.304688 56.066406 "/>
<path style=" stroke:none;fill-rule:nonzero;fill:url(#linear1);" d="M 37.085938 5.792969 L 13.230469 5.792969 C 11.765625 5.792969 10.585938 6.972656 10.585938 8.4375 L 10.585938 53.421875 C 10.585938 54.886719 11.765625 56.066406 13.230469 56.066406 L 48.953125 56.066406 C 50.417969 56.066406 51.597656 54.886719 51.597656 53.421875 L 51.597656 20.308594 Z M 37.085938 5.792969 "/>
<path style=" stroke:none;fill-rule:nonzero;fill:url(#linear2);" d="M 37.046875 18.359375 L 49.613281 18.359375 L 51.597656 20.34375 L 51.597656 22.992188 L 37.046875 22.992188 Z M 37.046875 18.359375 "/>
<path style=" stroke:none;fill-rule:nonzero;fill:rgb(0%,0%,0%);fill-opacity:0.235294;" d="M 10.585938 52.394531 L 10.585938 53.421875 C 10.585938 54.886719 11.765625 56.066406 13.230469 56.066406 L 48.953125 56.066406 C 50.417969 56.066406 51.597656 54.886719 51.597656 53.421875 L 51.597656 52.394531 C 51.597656 53.859375 50.417969 55.039062 48.953125 55.039062 L 13.230469 55.039062 C 11.765625 55.039062 10.585938 53.859375 10.585938 52.394531 Z M 10.585938 52.394531 "/>
<path style=" stroke:none;fill-rule:nonzero;fill:rgb(100%,100%,100%);fill-opacity:0.784314;" d="M 13.230469 5.792969 C 11.765625 5.792969 10.585938 6.972656 10.585938 8.4375 L 10.585938 9.429688 C 10.585938 7.964844 11.765625 6.785156 13.230469 6.785156 L 37.085938 6.785156 L 51.597656 21.300781 L 51.597656 20.308594 L 37.085938 5.792969 Z M 13.230469 5.792969 "/>
<path style=" stroke:none;fill-rule:nonzero;fill:url(#linear3);" d="M 51.597656 20.308594 L 37.085938 5.792969 L 37.085938 17.660156 C 37.085938 19.125 38.265625 20.308594 39.730469 20.308594 Z M 51.597656 20.308594 "/>
<path style=" stroke:none;fill-rule:nonzero;fill:rgb(0%,0%,0%);fill-opacity:0.235294;" d="M 37.085938 17.039062 L 37.085938 17.660156 C 37.085938 19.125 38.265625 20.308594 39.730469 20.308594 L 51.597656 20.308594 L 50.976562 19.683594 L 39.730469 19.683594 C 38.265625 19.683594 37.085938 18.503906 37.085938 17.039062 Z M 37.085938 17.039062 "/>
<path style=" stroke:none;fill-rule:nonzero;fill:rgb(100%,100%,100%);fill-opacity:0.392157;" d="M 37.085938 5.792969 L 37.085938 6.785156 L 50.605469 20.308594 L 51.597656 20.308594 Z M 37.085938 5.792969 "/>
<path style=" stroke:none;fill-rule:nonzero;fill:rgb(12.941177%,12.941177%,12.941177%);fill-opacity:1;" d="M 37.082031 5.605469 C 36.980469 5.605469 36.898438 5.691406 36.898438 5.792969 L 36.898438 17.660156 C 36.898438 19.226562 38.164062 20.496094 39.730469 20.496094 L 51.597656 20.496094 C 51.675781 20.492188 51.742188 20.449219 51.773438 20.378906 C 51.800781 20.308594 51.785156 20.226562 51.730469 20.175781 L 37.214844 5.660156 C 37.179688 5.625 37.132812 5.605469 37.082031 5.605469 Z M 37.273438 6.246094 L 51.144531 20.117188 L 39.730469 20.117188 C 38.363281 20.117188 37.273438 19.027344 37.273438 17.660156 Z M 37.273438 6.246094 "/>
<path style=" stroke:none;fill-rule:nonzero;fill:rgb(12.941177%,12.941177%,12.941177%);fill-opacity:1;" d="M 13.230469 5.605469 C 11.664062 5.605469 10.398438 6.871094 10.398438 8.4375 L 10.398438 53.421875 C 10.398438 54.988281 11.664062 56.253906 13.230469 56.253906 L 48.953125 56.253906 C 50.519531 56.253906 51.785156 54.988281 51.785156 53.421875 L 51.785156 20.308594 C 51.785156 20.257812 51.765625 20.210938 51.730469 20.175781 L 37.214844 5.660156 C 37.179688 5.625 37.132812 5.605469 37.085938 5.605469 Z M 13.230469 5.980469 L 37.007812 5.980469 L 51.410156 20.382812 L 51.410156 53.421875 C 51.410156 54.785156 50.316406 55.878906 48.953125 55.878906 L 13.230469 55.878906 C 11.863281 55.878906 10.773438 54.785156 10.773438 53.421875 L 10.773438 8.4375 C 10.773438 7.074219 11.863281 5.980469 13.230469 5.980469 Z M 13.230469 5.980469 "/>
</g>
</svg>

<svg xmlns="http://www.w3.org/2000/svg" width="64pt" height="64pt" viewBox="0 0 64 64"><defs><linearGradient id="a" gradientUnits="userSpaceOnUse" x1="254" y1="233.5" x2="254" y2="254.667" gradientTransform="translate(1.323 26.878) scale(.12501)"><stop offset="0" stop-opacity=".275"/><stop offset="1" stop-opacity="0"/></linearGradient><radialGradient id="b" gradientUnits="userSpaceOnUse" cx="450.909" cy="189.579" fx="450.909" fy="189.579" r="21.167" gradientTransform="matrix(0 -.15626 -.28128 0 98.97 127.19)"><stop offset="0" stop-opacity=".314"/><stop offset=".222" stop-opacity=".275"/><stop offset="1" stop-opacity="0"/></radialGradient><radialGradient id="c" gradientUnits="userSpaceOnUse" cx="450.909" cy="189.579" fx="450.909" fy="189.579" r="21.167" gradientTransform="matrix(0 .15626 .28128 0 -36.786 -15.055)"><stop offset="0" stop-opacity=".314"/><stop offset=".222" stop-opacity=".275"/><stop offset="1" stop-opacity="0"/></radialGradient><radialGradient id="d" gradientUnits="userSpaceOnUse" cx="450.909" cy="189.579" fx="450.909" fy="189.579" r="21.167" gradientTransform="matrix(0 -.15626 .28128 0 -36.786 127.19)"><stop offset="0" stop-opacity=".314"/><stop offset=".222" stop-opacity=".275"/><stop offset="1" stop-opacity="0"/></radialGradient><radialGradient id="e" gradientUnits="userSpaceOnUse" cx="450.909" cy="189.579" fx="450.909" fy="189.579" r="21.167" gradientTransform="matrix(0 .15626 -.28128 0 98.97 -15.055)"><stop offset="0" stop-opacity=".314"/><stop offset=".222" stop-opacity=".275"/><stop offset="1" stop-opacity="0"/></radialGradient><linearGradient id="f" gradientUnits="userSpaceOnUse" x1="940" y1="1695.118" x2="940" y2="175.118" gradientTransform="scale(.03308)"><stop offset="0" stop-color="#e0e0e0"/><stop offset="1" stop-color="#eee"/></linearGradient><linearGradient id="g" gradientUnits="userSpaceOnUse" x1="249.189" y1="236.524" x2="249.189" y2="254.667" gradientTransform="matrix(.05979 0 0 .21877 30.085 -32.722)"><stop offset="0" stop-opacity=".275"/><stop offset="1" stop-opacity="0"/></linearGradient><linearGradient id="h" gradientUnits="userSpaceOnUse" x1="338.667" y1="233.5" x2="338.667" y2="-168.667" gradientTransform="translate(0 26.878) scale(.12501)"><stop offset="0" stop-color="#9e9e9e"/><stop offset="1" stop-color="#bdbdbd"/></linearGradient></defs><path d="M15.875 56.066h30.43v2.649h-30.43zm0 0" fill="url(#a)"/><path d="M46.305 56.066h5.293v-2.644h-5.293zm0 0" fill="url(#b)"/><path d="M15.875 56.066h-5.29v2.649h5.29zm0 0" fill="url(#c)"/><path d="M15.875 56.066h-5.29v-2.644h5.29zm0 0" fill="url(#d)"/><path d="M46.305 56.066h5.293v2.649h-5.293zm0 0" fill="url(#e)"/><path d="M37.086 5.793H13.23a2.639 2.639 0 0 0-2.644 2.644v44.985a2.639 2.639 0 0 0 2.644 2.644h35.723a2.639 2.639 0 0 0 2.645-2.644V20.309zm0 0" fill="url(#f)"/><path d="M37.047 18.36h12.566l1.985 1.984v2.648H37.047zm0 0" fill="url(#g)"/><path d="M10.586 52.395v1.027a2.639 2.639 0 0 0 2.644 2.644h35.723a2.639 2.639 0 0 0 2.645-2.644v-1.027a2.639 2.639 0 0 1-2.645 2.644H13.23a2.639 2.639 0 0 1-2.644-2.644zm0 0" fill-opacity=".235"/><path d="M13.23 5.793a2.639 2.639 0 0 0-2.644 2.644v.993a2.639 2.639 0 0 1 2.644-2.645h23.856l14.512 14.516v-.992L37.086 5.793zm0 0" fill="#fff" fill-opacity=".784"/><path d="M51.598 20.309L37.086 5.793V17.66a2.642 2.642 0 0 0 2.644 2.649zm0 0" fill="url(#h)"/><path d="M37.086 17.04v.62a2.642 2.642 0 0 0 2.644 2.649h11.868l-.621-.625H39.73a2.639 2.639 0 0 1-2.644-2.645zm0 0" fill-opacity=".235"/><path d="M37.086 5.793v.992l13.52 13.524h.992zm0 0" fill="#fff" fill-opacity=".392"/><path d="M37.082 5.605a.187.187 0 0 0-.184.188V17.66a2.832 2.832 0 0 0 2.832 2.836h11.868a.198.198 0 0 0 .175-.117.186.186 0 0 0-.043-.203L37.215 5.66a.186.186 0 0 0-.133-.055zm.191.641l13.872 13.871H39.73a2.444 2.444 0 0 1-2.457-2.457zm0 0" fill="#212121"/><path d="M13.23 5.605a2.83 2.83 0 0 0-2.832 2.832v44.985a2.83 2.83 0 0 0 2.832 2.832h35.723a2.83 2.83 0 0 0 2.832-2.832V20.309c0-.051-.02-.098-.055-.133L37.215 5.66a.184.184 0 0 0-.13-.055zm0 .375h23.778L51.41 20.383v33.039a2.449 2.449 0 0 1-2.457 2.457H13.23a2.447 2.447 0 0 1-2.457-2.457V8.438A2.447 2.447 0 0 1 13.23 5.98zm0 0" fill="#212121"/></svg>
